X: 1
T: Dry Bread And Pullit
M: 4/4
L: 1/8
R: reel
K: Gmaj
DG G2 DGBG | DG B/c/d g2 ga | bzag gedB | EBdB A2 GE |
D3 G DG G2 | DG B/c/d g2 ga | bzag gedB | BAFA G2 z2 :|
babg dcdA | B/c/d ec A2 AG | FGAB (3cBA FA | G2 GA B2 B/c/d |
babg dcdA | B/c/d ec A2 AG | FGAB (3cBA FA | GABA G2 z2 :|
